fa/svgs/regular/face-surprise.svg

<svg xmlns="http://www.w3.org/2000/svg" viewBox="0 0 512 512"><!--! Font Awesome Free 6.1.1 by @fontawesome - https://fontawesome.com License - https://fontawesome.com/license/free (Icons: CC BY 4.0, Fonts: SIL OFL 1.1, Code: MIT License) Copyright 2022 Fonticons, Inc.--><path d="M144.4 208c0-17.7 14.3-32 32-32 17.6 0 32 14.3 32 32s-14.4 32-32 32c-17.7 0-32-14.3-32-32zm224 0c0 17.7-14.4 32-32 32-17.7 0-32-14.3-32-32s14.3-32 32-32c17.6 0 32 14.3 32 32zM192 352c0-35.3 28.7-64 64-64s64 28.7 64 64-28.7 64-64 64-64-28.7-64-64zm320-96c0 141.4-114.6 256-256 256S0 397.4 0 256 114.6 0 256 0s256 114.6 256 256zM256 48C141.1 48 48 141.1 48 256s93.1 208 208 208 208-93.1 208-208S370.9 48 256 48z"/></svg>

<svg xmlns="http://www.w3.org/2000/svg" viewBox="0 0 512 512"><!--! Font Awesome Free 6.2.1 by @fontawesome - https://fontawesome.com License - https://fontawesome.com/license/free (Icons: CC BY 4.0, Fonts: SIL OFL 1.1, Code: MIT License) Copyright 2022 Fonticons, Inc. --><path d="M144.4 208C144.4 190.3 158.7 176 176.4 176C194 176 208.4 190.3 208.4 208C208.4 225.7 194 240 176.4 240C158.7 240 144.4 225.7 144.4 208zM368.4 208C368.4 225.7 354 240 336.4 240C318.7 240 304.4 225.7 304.4 208C304.4 190.3 318.7 176 336.4 176C354 176 368.4 190.3 368.4 208zM192 352C192 316.7 220.7 288 256 288C291.3 288 320 316.7 320 352C320 387.3 291.3 416 256 416C220.7 416 192 387.3 192 352zM512 256C512 397.4 397.4 512 256 512C114.6 512 0 397.4 0 256C0 114.6 114.6 0 256 0C397.4 0 512 114.6 512 256zM256 48C141.1 48 48 141.1 48 256C48 370.9 141.1 464 256 464C370.9 464 464 370.9 464 256C464 141.1 370.9 48 256 48z"/></svg>
